other/keep.svg

<?xml version="1.0" encoding="UTF-8" standalone="no"?>
<svg
   xmlns:dc="http://purl.org/dc/elements/1.1/"
   xmlns:cc="http://creativecommons.org/ns#"
   xmlns:rdf="http://www.w3.org/1999/02/22-rdf-syntax-ns#"
   xmlns:svg="http://www.w3.org/2000/svg"
   xmlns="http://www.w3.org/2000/svg"
   xmlns:sodipodi="http://sodipodi.sourceforge.net/DTD/sodipodi-0.dtd"
   xmlns:inkscape="http://www.inkscape.org/namespaces/inkscape"
   width="48"
   height="48"
   viewBox="0 0 48 48"
   version="1.1"
   id="svg4"
   sodipodi:docname="keep2.svg"
   inkscape:version="0.92.4 (fd57863, 2020-04-02)">
  <metadata
     id="metadata10">
    <rdf:RDF>
      <cc:Work
         rdf:about="">
        <dc:format>image/svg+xml</dc:format>
        <dc:type
           rdf:resource="http://purl.org/dc/dcmitype/StillImage" />
        <dc:title></dc:title>
      </cc:Work>
    </rdf:RDF>
  </metadata>
  <defs
     id="defs8" />
  <sodipodi:namedview
     pagecolor="#ffffff"
     bordercolor="#666666"
     borderopacity="1"
     objecttolerance="10"
     gridtolerance="10"
     guidetolerance="10"
     inkscape:pageopacity="0"
     inkscape:pageshadow="2"
     inkscape:window-width="1920"
     inkscape:window-height="1015"
     id="namedview6"
     showgrid="false"
     inkscape:zoom="8"
     inkscape:cx="-3.1447911"
     inkscape:cy="21.621566"
     inkscape:window-x="0"
     inkscape:window-y="28"
     inkscape:window-maximized="1"
     inkscape:current-layer="svg4" />
  <path
     style="display:inline;opacity:0.29200003;fill:#ffffff;fill-opacity:1;stroke:none;stroke-width:2.40909219;stroke-linecap:round;stroke-miterlimit:4;stroke-dasharray:none"
     d="M 10.632812 8.1816406 A 2.4041878 2.4041878 0 0 0 8.2636719 10.621094 L 8.2636719 37.126953 A 2.4041878 2.4041878 0 0 0 12.267578 39.125 A 2.4042715 2.4042715 0 0 0 12.277344 39.119141 A 2.4041878 2.4041878 0 0 0 12.369141 39.03125 L 12.439453 38.957031 L 23.945312 27.429688 L 35.541016 39.001953 A 2.4041878 2.4041878 0 1 0 38.9375 35.599609 L 25.658203 22.345703 A 2.4041878 2.4041878 0 0 0 23.931641 21.617188 A 2.4041878 2.4041878 0 0 0 22.105469 22.462891 L 13.072266 31.519531 L 13.072266 10.621094 A 2.4041878 2.4041878 0 0 0 10.632812 8.1816406 z M 37.15625 8.3027344 A 2.4041878 2.4041878 0 0 0 35.505859 9.03125 L 25 19.560547 A 2.4041878 2.4041878 0 0 1 26.681641 20.285156 L 28.878906 22.480469 L 38.908203 12.427734 A 2.4041878 2.4041878 0 0 0 37.15625 8.3027344 z "
     id="rect812" />
</svg>

<?xml version="1.0" encoding="UTF-8"?>
<svg version="1.1" viewBox="0 0 48 48" xmlns="http://www.w3.org/2000/svg">
    <path d="m10.633 8.1816a2.4042 2.4042 0 0 0-2.3691 2.4395v26.506a2.4042 2.4042 0 0 0 4.0039 1.998 2.4043 2.4043 0 0 0 0.009766-0.005859 2.4042 2.4042 0 0 0 0.091797-0.087891l0.070312-0.074219 11.506-11.527 11.596 11.572a2.4042 2.4042 0 1 0 3.3965-3.4023l-13.279-13.254a2.4042 2.4042 0 0 0-1.7266-0.72852 2.4042 2.4042 0 0 0-1.8262 0.8457l-9.0332 9.0566v-20.898a2.4042 2.4042 0 0 0-2.4395-2.4395zm26.523 0.12109a2.4042 2.4042 0 0 0-1.6504 0.72852l-10.506 10.529a2.4042 2.4042 0 0 1 1.6816 0.72461l2.1973 2.1953 10.029-10.053a2.4042 2.4042 0 0 0-1.752-4.125z" fill="#fff"/>
</svg>
